!!!OTL: 223. Khosid
!!!Genre:	Khosid
!!!Mode:	Major
!!!Listening/dance:	dance
!!!One_Mode:	yes
**kern
*I"P1
*clefG2
*k[f#]
*G:
*M2/4
*>A
8d
=1
8b
16qcc/
16bL
16aJJ
8gL
8gJ
=2
8aL
16bL
(8qdd/
16ccJJ)
16btLL
16aJ
8gJ
=3
(16bLL
16ddJ)
8b'J
(16bLL
16ddJ)
8b'J
=4
8b
(16qqa/LL
16qqb/JJ
16aL)
16gJJ
16aLL
16bJ
8dJ
=5
8bL
(16qcc/
16bL)
16aJJ
8gL
8gJ
=6
8aL
16bL
(8qdd/
16ccJJ)
16bLL
16aJ
8gJ
=7
(16bLL
16ddJ)
8bJ
(16bLL
16a)
(8qb/
(16a)
16gJJ)
=8
4g
4G
=9||
*>B
16bLL
16b
16b
16bJJ
(16aLL
16ddJ)
8bJ
=10
(16bLL
16a)
(8qb/
(16a)
16gJJ)
16gLL
16bJ
8dJ
=11
(16dLL
16f#)
(16f#
16aJJ)
(16aLL
16cc)
(16cc
16eeJJ)
=12
(16eeLL
16dd)
(16dd
16cc#XJJ)
4dd
=13
16r
16ffnLL
16ee
16ddJJ
16ccnLL
16bJ
8aJ
=14
16r
16eeLL
16dd
16ccJJ
16btLL
16aJ
8gJ
=15
8.f#tL
16eJk
16eLL
16a
16g
16f#JJ
=16
4g
4G
=17||
*>C
4.dd
16eeLL
16ff#JJ
=18
(4.gg
8dd)
=19
8dd
(8qee/
16ddL)
16ccJJ
8bL
8ccJ
=20
8ddL
8eeJ
4dd
=21
8ggL
16ff#L
16eeJJ
8ddL
8ccJ
=22
8bL
8eeJ
4dd
=23
16r
16ffnLL
16ee
16ddJJ
16ccLL
16bJ
8aJ
=24
16r
16eeLL
16dd
16ccJJ
16bLL
16aJ
8gJ
=25
8.f#tL
16eJk
(16eLL
16a)
16g'
16f#'JJ
=26
2g
==
*-
